!!!!SEGMENT: pl-kk--kk-i-1--014-005_certon-pierre--missa-agnus-dei.krn
!!!cenid: 15xx:727
!!!COM: Certon, Pierre
!!!COM-rismid: pe30006023
!!!CDT: ~1510-1572/02/23
!!!CNT: French
!!!OPR: [Missa]
!!!OTL: Agnus Dei
!!!OMV: 005
!!!PDT:
!!!AGN: Sacred; Mass
!!!SMS-siglum: PL-Kk
!!!SMS-shelfmark: Kk.I.1
!!!SMS-shelfwork: 014-005 M
!!!SMS-variant:
!!!SMS-altvar:
!!!NIFC-rismid: 300257968
!!!URL-scan: http://repozytorium.nifc.pl/skany/pl-kk-nut--i-1
!!!ONB-nifc: UWAGA: Cantus (s. 82r-90r, skan 0084-0092), Altus (s. 79r-86v, skan 0271-0279), Tenor (s. 76v-83r, skan 0466-0472), Bassus (s. 76v-85v, skan 0638-0645). Części Mszy: 1. Kyrie, 2. Et in terra, 3. Patrem, 4. Sanctus, 5. Agnus Dei
!!!key: d:dor
**kern	**text	**kern	**text	**kern	**text	**kern	**text	**kern	**text
*part5	*part5	*part4	*part4	*part3	*part3	*part2	*part2	*part1	*part1
*staff5	*staff5	*staff4	*staff4	*staff3	*staff3	*staff2	*staff2	*staff1	*staff1
*I"BASSVS II	*	*I"BASSVS	*	*I"TENOR	*	*I"ALTVS	*	*I"CANTVS	*
*I'B II	*	*I'B I	*	*I'T	*	*I'A	*	*I'S	*
*ICvox	*	*ICvox	*	*ICvox	*	*ICvox	*	*ICvox	*
*Ibass	*	*Ibass	*	*Itenor	*	*Ialto	*	*Isoprn	*
*clefF4	*	*clefF4	*	*clefC4	*	*clefC4	*	*clefC4	*
*d:dor	*	*d:dor	*	*d:dor	*	*d:dor	*	*d:dor	*
*k[]	*	*k[]	*	*k[]	*	*k[]	*	*k[]	*
*M2/1	*	*yyM2/1	*	*M2/1	*	*M2/1	*	*M2/1	*
*met(c|)	*	*yymet(c|)	*	*met(c|)	*	*met(c|)	*	*met(c|)	*
=1	=1	=1	=1	=1	=1	=1	=1	=1	=1
!!LO:TX:t=P:problem:sześciolinia	!	!	!	!	!	!	!	!
!	!	!	!	!	!	!LO:TX:t=P:problem= w źródle A zapisany w kluczu tenorowym	!	!LO:TX:t=P:problem= w źródle S zapisany w kluczu tenorowym	!
0ryy	.	0D	AG-	0D	A-	0A	AG-	0d	AG-
=2	=2	=2	=2	=2	=2	=2	=2	=2	=2
0ryy	.	1D	-nus	1.F	-gnus	1A	-nus	1d	-nus
.	.	1BB	De-	.	.	1D	De-	1d	de-
.	.	.	.	2G/	de-	.	.	.	.
=3	=3	=3	=3	=3	=3	=3	=3	=3	=3
0ryy	.	0AA	-i	00.A	-i	2.F/	-i	1c	-i
.	.	.	.	.	.	4G/	.	.	.
.	.	.	.	.	.	1E	.	2r	.
.	.	.	.	.	.	.	.	2c\	A-
=4	=4	=4	=4	=4	=4	=4	=4	=4	=4
0ryy	.	2r	.	.	.	1D	.	1.f	-gnus
.	.	2D/	a-	.	.	.	.	.	.
*	*	*	*	*	*	*custos:F	*	*	*
.	.	1.F	-gnus	.	.	1D	.	.	.
.	.	.	.	.	.	.	.	2e\	.
!	!	!	!	!	!	!LO:LB:g=original	!	!	!
=5	=5	=5	=5	=5	=5	=5	=5	=5	=5
0ryy	.	.	.	.	.	1.F	.	2d\	de-
.	.	2E\	.	.	.	.	.	2c\	-i
.	.	2D/	de-	.	.	.	.	2d\	.
.	.	2C/	-i	.	.	2E/	.	2e\	.
=6	=6	=6	=6	=6	=6	=6	=6	=6	=6
0ryy	.	1D	.	0r	.	2D/	.	1f	.
.	.	.	.	.	.	2A/	a-	.	.
.	.	1AA	.	.	.	1c	-gnus	00e	.
=7	=7	=7	=7	=7	=7	=7	=7	=7	=7
*	*	*	*	*	*ij	*	*	*	*
0ryy	.	2r	.	1A	A-	2A/	de-	.	.
.	.	2.AA/	a-	.	.	2.c\	-i	.	.
.	.	.	.	1c	.	.	.	.	.
.	.	4BB/	.	.	.	4B/	.	.	.
.	.	4C/	.	.	.	1A	.	.	.
.	.	4D/	.	.	.	.	.	.	.
=8	=8	=8	=8	=8	=8	=8	=8	=8	=8
0ryy	.	4E\	.	1B	-gnus	.	.	.	.
.	.	4F\	.	.	.	.	.	.	.
.	.	4G\	.	.	.	2G/	.	.	.
.	.	4E\	.	.	.	.	.	.	.
.	.	1.F	-gnus	1.A	de-	2A/	.	2c\	.
.	.	.	.	.	.	4F/	.	1f	.
.	.	.	.	.	.	4G/	.	.	.
=9	=9	=9	=9	=9	=9	=9	=9	=9	=9
0ryy	.	.	.	.	.	4A/	.	.	.
.	.	.	.	.	.	4B/	.	.	.
*	*	*	*	*	*	*	*	*custos:d	*
.	.	2C/	.	2G/	.	2c\	.	2e\	.
!	!	!	!	!	!	!	!	!LO:LB:g=original	!
.	.	2D/	de-	2F/	.	1A	.	2d\	.
*	*	*custos:BB	*	*	*	*	*	*	*
.	.	2C/	-i	2E/	.	.	.	2.e\	.
!	!	!LO:LB:g=original	!	!	!	!	!	!	!
=10	=10	=10	=10	=10	=10	=10	=10	=10	=10
*	*	*	*	*	*	*lig	*	*	*
0ryy	.	2BB/	.	2F/	.	1B	.	.	.
.	.	.	.	.	.	.	.	4d\	.
.	.	2GG/	.	2G/	.	.	.	1d	.
*	*	*	*	*custos:D	*	*	*	*	*
.	.	1AA	.	1E	.	1A	.	.	.
.	.	.	.	.	.	.	.	2c\	.
*	*	*	*	*	*	*Xlig	*	*	*
!	!	!	!	!LO:LB:g=original	!	!	!	!	!
=11	=11	=11	=11	=11	=11	=11	=11	=11	=11
0ryy	.	1D	.	0D	-i	1F	.	0d	.
.	.	2r	.	.	.	2r	.	.	.
.	.	1D	qui	.	.	2D/	qui	.	.
*	*	*	*	*	*Xij	*	*	*	*
=12	=12	=12	=12	=12	=12	=12	=12	=12	=12
0ryy	.	.	.	0r	.	2F/	tol-	0r	.
.	.	2C/	tol-	.	.	2E/	-lis	.	.
.	.	2AA/	-lis	.	.	2F/	pec-	.	.
*	*	*	*	*	*	*custos:E	*	*	*
.	.	2BB/	p(e)c-	.	.	2G/	-ca-	.	.
!	!	!	!	!	!	!LO:LB:g=original	!	!	!
=13	=13	=13	=13	=13	=13	=13	=13	=13	=13
0ryy	.	2C/	-(ca)-	1r	.	2E/	-ta	1r	.
.	.	2D/	-ta	.	.	1A	mun-	.	.
.	.	1BB	mun-	2r	.	.	.	2r	.
.	.	.	.	1d	Qui	2G/	.	2D/	qui
=14	=14	=14	=14	=14	=14	=14	=14	=14	=14
0ryy	.	1AA	-di	.	.	1A	-di	2F/	.
.	.	.	.	2c\	tol-	.	.	2E/	tol-
.	.	1r	.	2A/	-lis	1r	.	2F/	-lis
.	.	.	.	2B/	p(e)c-	.	.	2G/	p(e)c-
=15	=15	=15	=15	=15	=15	=15	=15	=15	=15
0ryy	.	0r	.	2.c\	-(ca)-	1r	.	2E/	-(ca)-
.	.	.	.	.	.	.	.	1A	-ta
.	.	.	.	4d\	-ta	.	.	.	.
.	.	.	.	1B	m(un)-	2r	.	.	.
.	.	.	.	.	.	1d	.	2G/	mun-
=16	=16	=16	=16	=16	=16	=16	=16	=16	=16
0ryy	.	2r	.	1A	-di	.	.	2.A/	-di
.	.	1A	qui	.	.	2c\	.	.	.
.	.	.	.	.	.	.	.	4B\	.
.	.	.	.	1r	.	2A\	.	4c\	.
.	.	.	.	.	.	.	.	4d\	.
.	.	2G\	tol-	.	.	2B\	.	2.e\	.
=17	=17	=17	=17	=17	=17	=17	=17	=17	=17
0ryy	.	2E\	-lis	2r	.	2c\	.	.	.
.	.	.	.	.	.	.	.	4c\	.
*	*	*	*	*	*ij	*	*	*	*
.	.	2F\	p(e)c-	1d	qui	2d\	.	2f\	.
.	.	2G\	-(ca)-	.	.	2B\	.	1e	.
.	.	2A\	-ta	2c\	tol-	2A\	.	.	.
=18	=18	=18	=18	=18	=18	=18	=18	=18	=18
*	*	*	*	*	*	*	*	*	*ij
0ryy	.	1F	mu(n)-	1A	-lis	2c\	.	2r	.
.	.	.	.	.	.	2d\	.	1d	qui
.	.	1E	-di	2B\	p(e)c-	0e	.	.	.
*	*	*	*	*	*	*	*	*custos:A	*
.	.	.	.	2.c\	-(ca)-	.	.	2c\	tol-
!	!	!	!	!	!	!	!	!LO:LB:g=original	!
=19	=19	=19	=19	=19	=19	=19	=19	=19	=19
0ryy	.	2r	.	.	.	.	.	2A/	-lis
.	.	.	.	4d\	.	.	.	.	.
.	.	2.E\	mun-	1B	-ta	.	.	2B/	p(e)c-
*	*	*	*	*	*	*lig	*	*	*
.	.	.	.	.	.	1f	.	2c\	-(ca)-
.	.	4D/	.	.	.	.	.	.	.
*	*	*custos:E	*	*	*	*	*	*	*
.	.	2D/	-di	1A	m(un)-	.	.	2d\	-ta
!	!	!LO:LB:g=original	!	!	!	!	!	!	!
=20	=20	=20	=20	=20	=20	=20	=20	=20	=20
0ryy	.	1E	.	.	.	1e	.	1B	mun-
.	.	.	.	2G/	.	.	.	.	.
*	*	*	*	*	*	*Xlig	*	*	*
.	.	2AA/	.	1A	-di	2c\	.	2A/	-di
*	*	*	*ij	*	*Xij	*	*	*	*Xij
.	.	2D/	qui	.	.	2d\	.	2f\	qui
=21	=21	=21	=21	=21	=21	=21	=21	=21	=21
0ryy	.	2D/	tol-	2r	.	2A/	.	2f\	tol-
.	.	2C/	-lis	1G	qui	2c\	.	2e\	.
.	.	4GG/	p(e)c-	.	.	1B	.	4d\	-lis
.	.	4AA/	.	.	.	.	.	4c\	.
*	*	*	*	*custos:D	*	*	*	*	*
.	.	4BB/	.	2F/	tol-	.	.	4d\	pec-
.	.	4C/	.	.	.	.	.	4e\	.
!	!	!	!	!LO:LB:g=original	!	!	!	!	!
=22	=22	=22	=22	=22	=22	=22	=22	=22	=22
*	*	*	*	*	*	*custos:B	*	*	*
0ryy	.	2D/	.	2D/	-lis	1A	.	2f\	-ca-
.	.	2C/	.	2E/	p(e)c-	.	.	1e	-ta
!	!	!	!	!	!	!LO:LB:g=original	!	!	!
*	*	*	*	*	*	*lig	*	*	*
.	.	2BB/	-ca-	2F/	-(ca)-	1B	.	.	.
.	.	2GG/	-ta	2G/	-ta	.	.	1d	.
=23	=23	=23	=23	=23	=23	=23	=23	=23	=23
0ryy	.	1AA	mun-	1E	m(un)-	1A	.	.	.
.	.	.	.	.	.	.	.	2c\	m(un)-
*	*	*	*	*	*	*Xlig	*	*	*
.	.	1D	-di	0D	-di	0F	.	2d\	-di
.	.	.	.	.	.	.	.	2A/	mi-
*	*	*	*Xij	*	*	*	*	*	*
=24	=24	=24	=24	=24	=24	=24	=24	=24	=24
0ryy	.	2r	.	.	.	.	.	2A/	-ſe-
.	.	2A\	mi-	.	.	.	.	2A/	-re-
.	.	2A\	-ſe-	1r	.	2r	.	2.c/	-re
.	.	2A\	-re-	.	.	2A/	mi-	.	.
.	.	.	.	.	.	.	.	4B/	.
=25	=25	=25	=25	=25	=25	=25	=25	=25	=25
0ryy	.	2.c\	-re	2r	.	2A/	-ſe-	4A/	.
.	.	.	.	.	.	.	.	4G/	.
.	.	.	.	2A/	mi-	2A/	-re-	2.F/	.
.	.	4B\	no-	.	.	.	.	.	.
.	.	4A\	-bis	2A/	-ſe-	2.c\	-re	.	.
.	.	4G\	.	.	.	.	.	4E/	.
*	*	*	*	*	*	*	*	*custos:C	*
.	.	1F	.	2A/	-re-	.	.	2F/	no:
.	.	.	.	.	.	4B/	no-	.	.
!	!	!	!	!	!	!	!	!LO:LB:g=original	!
=26	=26	=26	=26	=26	=26	=26	=26	=26	=26
0ryy	.	.	.	2.c\	-re	2A/	-bis	1C	.
.	.	2E\	.	.	.	2G/	.	.	.
.	.	.	.	4B/	.	.	.	.	.
.	.	1.F	.	4A/	.	4F/	.	2.F/	.
.	.	.	.	4G/	.	4G/	.	.	.
.	.	.	.	1F	.	4A/	.	.	.
.	.	.	.	.	.	4B/	.	4G/	.
=27	=27	=27	=27	=27	=27	=27	=27	=27	=27
0ryy	.	.	.	.	.	4c\	.	4A/	.
.	.	.	.	.	.	4d\	.	4B/	.
*	*	*custos:D	*	*	*	*	*	*	*
.	.	2C/	.	2E/	.	1e	.	2c\	.
!	!	!LO:LB:g=original	!	!	!	!	!	!	!
.	.	2D/	.	2F/	.	.	.	2A\	.
.	.	2GG/	.	2G/	.	1d	.	2B\	.
=28	=28	=28	=28	=28	=28	=28	=28	=28	=28
0ryy	.	1AA	.	1E	no-	.	.	1A	.
.	.	.	.	.	.	2c\	.	.	.
.	.	1D	.	0D	-bis	2d\	.	2F/	.
.	.	.	.	.	.	2A/	mi-	2f\	mi-
=29	=29	=29	=29	=29	=29	=29	=29	=29	=29
0ryy	.	2r	.	.	.	2A/	-ſe-	2f\	-ſe-
.	.	2A\	mi-	.	.	2A/	-re-	2f\	-re-
.	.	2A\	-ſe-	1r	.	2.c\	-re	2e\	-re
.	.	2A\	-re-	.	.	.	.	2A/	mi-
*	*	*	*	*	*	*custos:A	*	*	*
.	.	.	.	.	.	4B/	.	.	.
!	!	!	!	!	!	!LO:LB:g=original	!	!	!
=30	=30	=30	=30	=30	=30	=30	=30	=30	=30
0ryy	.	2.c\	-re	2r	.	4A/	.	2A/	-ſe-
.	.	.	.	.	.	4G/	.	.	.
.	.	.	.	2A\	mi-	2.F/	.	2A/	-re-
.	.	4B\	no-	.	.	.	.	.	.
.	.	4A\	-bis	2A\	-ſe-	.	.	2.c\	-re-
.	.	4G\	.	.	.	4E/	no-	.	.
*	*	*	*	*custos:c	*	*	*	*	*
.	.	1F	.	2A\	-re-	2F/	.	.	.
.	.	.	.	.	.	.	.	4B/	-re
!	!	!	!	!LO:LB:g=original	!	!	!	!	!
=31	=31	=31	=31	=31	=31	=31	=31	=31	=31
0ryy	.	.	.	2.c\	-re	1C	-bis	2A/	.
.	.	2E\	.	.	.	.	.	2G/	no-
.	.	.	.	4B/	.	.	.	.	.
.	.	1.F	.	4A/	.	2.F/	no-	4F/	.
.	.	.	.	4G/	.	.	.	4G/	.
.	.	.	.	1F	.	.	.	4A/	.
.	.	.	.	.	.	4G/	.	4B/	.
=32	=32	=32	=32	=32	=32	=32	=32	=32	=32
0ryy	.	.	.	.	.	4A/	.	4c\	.
.	.	.	.	.	.	4B/	.	4d\	.
.	.	2C/	.	2E/	.	2c\	.	1e	.
.	.	2D/	.	2F/	.	2A\	.	.	.
.	.	2GG/	.	2G/	.	2B\	.	1d	.
=33	=33	=33	=33	=33	=33	=33	=33	=33	=33
0ryy	.	1AA	.	1E	no-	1A	.	.	.
.	.	.	.	.	.	.	.	2c\	-bis
!	!	!LO:TX:a:t=Verte Cito.	!	!	!	!	!	!	!
!	!	!LO:TX:b:B:t=Aliud cum \nduob(us) baſsis.	!	!	!	!	!	!	!
.	.	1D;<l	.	1D;l	-bis	1D;l	-bis	1d;<l	.
=34	=34	=34	=34	=34	=34	=34	=34	=34	=34
*M2/1	*	*M2/1	*	*M2/1	*	*M2/1	*	*M2/1	*
*met(c|)	*	*met(c|)	*	*met(c|)	*	*met(c|)	*	*met(c|)	*
!LO:TX:a:t=2. Baſsus	!	!	!	!LO:TX:a:B:t=Aliud 5.\ncum duob.\nBaſsis	!	!LO:TX:a:B:t=Quinq(ue)	!	!LO:TX:a:B:t=5 Vocu(m)	!
0r	.	1r	.	0r	.	0r	.	1d	A-
!	!	!LO:LB:g=original	!	!	!	!	!	!	!
.	.	1D	A-	.	.	.	.	1.f	-gnus
=35	=35	=35	=35	=35	=35	=35	=35	=35	=35
0r	.	1.F	-gnus	1r	.	1D	AG-	.	.
.	.	.	.	.	.	.	.	2e\	.
.	.	.	.	1D	A-	1.F	-nus	2d\	de-
.	.	2E\	.	.	.	.	.	2c\	-i
=36	=36	=36	=36	=36	=36	=36	=36	=36	=36
0r	.	2D/	De-	1.F	-gnus	.	.	2B\	.
.	.	2C/	-i	.	.	2E/	De-	2A\	.
*	*	*	*	*	*	*custos:E	*	*	*
.	.	1BB	.	.	.	1D	-i	1d	.
.	.	.	.	2G/	de-	.	.	.	.
!	!	!	!	!	!	!LO:LB:g=original	!	!	!
=37	=37	=37	=37	=37	=37	=37	=37	=37	=37
1A	AG-	00AA	.	0A	-i	1E	.	1c	.
1.c	-nus	.	.	.	.	2r	.	1r	.
.	.	.	.	.	.	2A/	A-	.	.
=38	=38	=38	=38	=38	=38	=38	=38	=38	=38
.	.	.	.	0r	.	1.c	-gnus	1A	A-
2B\	De-	.	.	.	.	.	.	.	.
2A\	-i	.	.	.	.	.	.	1.c	-gnus
2G\	.	.	.	.	.	2B\	.	.	.
=39	=39	=39	=39	=39	=39	=39	=39	=39	=39
1F	.	0r	.	2r	.	1A	De-	.	.
*	*	*	*	*	*ij	*	*	*	*
.	.	.	.	1A	A-	.	.	2d\	de-
*lig	*	*	*	*	*	*	*	*	*
1E	.	.	.	.	.	1B	-i	00e	-i
*	*	*	*	*custos:A	*	*	*	*	*
.	.	.	.	2G/	-gnus	.	.	.	.
!	!	!	!	!LO:LB:g=original	!	!	!	!	!
=40	=40	=40	=40	=40	=40	=40	=40	=40	=40
1AA	.	1r	.	2A/	de-	2r	.	.	.
.	.	.	.	1c	.	2A/	.	.	.
00E	.	1AA	.	.	.	1.c	.	.	.
.	.	.	.	4B/	.	.	.	.	.
.	.	.	.	4A/	.	.	.	.	.
*Xlig	*	*	*	*	*	*	*	*	*
=41	=41	=41	=41	=41	=41	=41	=41	=41	=41
.	.	1.C	.	2G/	.	.	.	.	.
.	.	.	.	2A/	.	2d\	.	.	.
*	*	*	*	*	*	*	*	*lig	*
.	.	.	.	2E/	.	1e	.	1c	.
.	.	2D/	.	1A	.	.	.	.	.
=42	=42	=42	=42	=42	=42	=42	=42	=42	=42
.	.	1E	.	.	.	1e	.	1B	.
.	.	.	.	2G/	.	.	.	.	.
*	*	*	*	*	*	*	*	*Xlig	*ij
1r	.	2AA/	.	1A	-i	2c\	.	1A	.
.	.	2D/	.	.	.	2d\	.	.	.
*	*	*	*	*	*Xij	*	*	*	*
=43	=43	=43	=43	=43	=43	=43	=43	=43	=43
0r	.	1.F	.	1r	.	1A	.	2r	.
.	.	.	.	.	.	.	.	2D/	A-
.	.	.	.	1D	A-	2r	.	1.F	-gnus
.	.	2E\	.	.	.	2A/	De-	.	.
=44	=44	=44	=44	=44	=44	=44	=44	=44	=44
1r	.	2D/	.	1.F	-gnus	0d	-i	.	.
*	*	*	*	*	*	*	*	*custos:D	*
.	.	2C/	.	.	.	.	.	2E/	de-
!	!	!	!	!	!	!	!	!LO:LB:g=original	!
2r	.	1BB	.	.	.	.	.	1D	-i
2D/	.	.	.	2G/	.	.	.	.	.
*	*	*	*	*	*	*	*	*	*Xij
=45	=45	=45	=45	=45	=45	=45	=45	=45	=45
1.F	.	0AA	.	1A	de-	1c	.	1r	.
.	.	.	.	2.A/	-i	2r	.	2r	.
2E\	.	.	.	.	.	2E/	qui	2A/	qui
.	.	.	.	4G/	.	.	.	.	.
=46	=46	=46	=46	=46	=46	=46	=46	=46	=46
2D/	.	0r	.	2F/	.	2A/	tol-	0d	tol-
2C/	.	.	.	2E/	.	2A/	-lis	.	.
1BB	.	.	.	1D	.	2B/	.	.	.
*	*	*	*	*	*	*custos:A	*	*	*
.	.	.	.	.	.	2G/	pec-	.	.
!	!	!	!	!	!	!LO:LB:g=original	!	!	!
=47	=47	=47	=47	=47	=47	=47	=47	=47	=47
0AA	.	1r	.	2E/	.	2.A/	-ca-	2c\	-lis
.	.	.	.	2E/	qui	.	.	2A/	p(e)c-
.	.	.	.	.	.	4G/	-ta	.	.
.	.	2r	.	1A	tol-	4A/	.	2e\	-(ca)-
.	.	.	.	.	.	4B/	.	.	.
.	.	2AA/	qui	.	.	1c	.	2e\	-ta
=48	=48	=48	=48	=48	=48	=48	=48	=48	=48
0r	.	2D/	tol-	2A/	-lis	.	.	1f	m(un)-
*	*	*	*	*custos:G	*	*	*	*	*
.	.	2D/	-lis	2B/	pec-	1B	.	.	.
!	!	!	!	!LO:LB:g=original	!	!	!	!	!
.	.	2E/	pec-	2G/	-ca-	.	.	1e	-di
*	*	*custos:D	*	*	*	*	*	*	*
.	.	2C/	-ca-	2A/	-ta	1A	.	.	.
!	!	!LO:LB:g=original	!	!	!	!	!	!	!
=49	=49	=49	=49	=49	=49	=49	=49	=49	=49
0r	.	2D/	-ta	2B/	.	.	.	2r	.
.	.	2E/	.	1c	mun-	2G/	mun-	2E/	.
.	.	1F	mun-	.	.	2A/	-di	2A/	.
.	.	.	.	4B/	.	2A/	.	2A/	.
.	.	.	.	4A/	.	.	.	.	.
=50	=50	=50	=50	=50	=50	=50	=50	=50	=50
1r	.	1E	.	2G/	-di	1.e	.	2B/	.
.	.	.	.	2E/	.	.	.	2G/	.
2r	.	1AA	-di	1A	.	.	.	2A/	.
2AA/	qui	.	.	.	.	2e\	.	1c	.
=51	=51	=51	=51	=51	=51	=51	=51	=51	=51
2D/	tol-	0r	.	2A/	.	1f	.	.	.
*custos:E	*	*	*	*	*	*	*	*	*
2D/	-lis	.	.	2B/	.	.	.	1B	.
!LO:LB:g=original	!	!	!	!	!	!	!	!	!
2E\	pec-	.	.	2G/	.	1e	.	.	.
2C/	-ca-	.	.	2A/	.	.	.	1A	.
=52	=52	=52	=52	=52	=52	=52	=52	=52	=52
2D/	-ta	1r	.	1B	.	2r	.	.	.
2E/	.	.	.	.	.	2e\	.	2G/	.
1F	mun-	2r	.	1A	.	2c\	.	2A/	.
*	*	*	*	*	*	*	*	*custos:E	*
.	.	1A	p(e)c-	.	.	2d\	.	2D/	.
!	!	!	!	!	!	!	!	!LO:LB:g=original	!
=53	=53	=53	=53	=53	=53	=53	=53	=53	=53
1E	-di	.	.	2r	.	1B	.	1E	.
.	.	2G\	-(ca)-	2e\	pec-	.	.	.	.
2r	.	2A\	-ta	2c\	-ca-	1A	.	1r	.
1A	p(e)c-	2D/	mun-	2d\	-ta	.	.	.	.
=54	=54	=54	=54	=54	=54	=54	=54	=54	=54
.	.	1E	-di	1B	mun-	2r	.	2r	.
2G\	-(ca)-	.	.	.	.	2E/	pec-	2e\	pec-
2A\	-ta	2r	.	1A	-di	1F	.	2c\	.
2D/	mun-	1D	.	.	.	.	.	2d\	-ca-
=55	=55	=55	=55	=55	=55	=55	=55	=55	=55
1E	-di	.	.	2r	.	2G/	-ca-	2B\	-ta
.	.	2C/	.	2A/	.	2E/	-ta	1e	mun-
1r	.	2D/	.	2F/	.	2A/	mu(n)-	.	.
*	*	*	*	*	*	*custos:A	*	*	*
.	.	2GG/	.	2G/	.	2B/	-di	1d	.
!	!	!	!	!	!	!LO:LB:g=original	!	!	!
=56	=56	=56	=56	=56	=56	=56	=56	=56	=56
*	*	*	*	*custos:F	*	*	*	*	*
2r	.	1AA	.	1E	.	1A	.	.	.
2A\	do-	.	.	.	.	.	.	2c\	.
!	!	!	!	!LO:LB:g=original	!	!	!	!	!
2F\	-na	1D	.	0.D	.	2r	.	0d	-di
2D/	no-	.	.	.	.	1A	do-	.	.
=57	=57	=57	=57	=57	=57	=57	=57	=57	=57
1A	-bis	2r	.	.	.	.	.	.	.
.	.	2A\	do-	.	.	2F/	-na	.	.
1r	.	2F\	-na	.	.	2D/	no-	2r	.
.	.	2D/	no-	.	.	1d	-bis	2d\	do-
=58	=58	=58	=58	=58	=58	=58	=58	=58	=58
*	*ij	*	*	*	*	*	*	*	*
2r	.	1A	-bis	1r	.	.	.	1e	-na
2A\	do-	.	.	.	.	2c\	.	.	.
2F\	-na	1r	.	2r	.	2d\	pa-	1f	no-
2D/	no-	.	.	2d\	do-	2d\	-cem	.	.
=59	=59	=59	=59	=59	=59	=59	=59	=59	=59
1A	-bis	2r	.	2c\	-na	1e	.	1e	-bis
.	.	2A\	do-	1A	no-	.	.	.	.
*	*Xij	*	*	*	*	*	*	*	*
1r	.	2F\	-na	.	.	1f	.	1r	.
*	*	*custos:A	*	*	*	*	*	*	*
.	.	2D/	no	1d	.	.	.	.	.
!	!	!LO:LB:g=original	!	!	!	!	!	!	!
=60	=60	=60	=60	=60	=60	=60	=60	=60	=60
1r	.	2A\	.	.	.	2e\	.	2r	.
*	*	*	*	*	*	*	*	*	*ij
.	.	2A\	.	2c\	-bis	1A	.	2A/	do-
2r	.	1D	.	2d\	pa-	.	.	2F/	-na
2D/	do-	.	.	2A\	.	2F/	.	2D/	no-
=61	=61	=61	=61	=61	=61	=61	=61	=61	=61
2BB/	-na	2r	.	1B	-cem	1G	.	1d	-bis
*custos:D	*	*	*	*	*	*	*	*	*
2GG/	no-	1G	.	.	.	.	.	.	.
*	*	*	*	*	*ij	*	*	*	*Xij
!LO:LB:g=original	!	!	!	!	!	!	!	!	!
2D/	-bis	.	.	1A	.	0A	.	2r	.
2D/	pa-	2F\	.	.	.	.	.	1d	do-
=62	=62	=62	=62	=62	=62	=62	=62	=62	=62
1AA	-ce(m)	2E\	.	1r	.	.	.	.	.
.	.	2C/	.	.	.	.	.	2c\	-na
1r	.	1E	.	2r	.	1r	.	2B\	no-
.	.	.	.	1G	do-	.	.	2G/	-b(is)
=63	=63	=63	=63	=63	=63	=63	=63	=63	=63
*	*	*	*	*	*	*	*	*custos:A	*
2r	.	1D	.	.	.	0r	.	1B	pa-
1D	do-	.	.	2F/	-na	.	.	.	.
!	!	!	!	!	!	!	!	!LO:LB:g=original	!
.	.	2r	.	2E/	no-	.	.	1A	-cem
2C/	-na	1A	do-	2C/	-bis	.	.	.	.
=64	=64	=64	=64	=64	=64	=64	=64	=64	=64
2BB/	no-	.	.	2F/	pa-	0r	.	2r	.
2GG/	-bis	2G\	-na	2G/	.	.	.	2B\	.
1BB	pa-	2F\	.	1D	-cem	.	.	2B\	.
.	.	2D\	no-	.	.	.	.	2G/	.
*	*	*	*	*	*Xij	*	*	*	*
=65	=65	=65	=65	=65	=65	=65	=65	=65	=65
0AA	-ce(m)	1F	-bis	0r	.	2r	.	0A	.
.	.	.	.	.	.	1d	.	.	.
.	.	1E	pa-	.	.	.	.	.	.
.	.	.	.	.	.	2c\	.	.	.
=66	=66	=66	=66	=66	=66	=66	=66	=66	=66
0r	.	2D/	.	1r	.	2B\	.	2F/	.
.	.	2.GG/	-cem	.	.	2G/	.	2G/	.
.	.	.	.	2r	.	1B	.	0D	.
.	.	4AA/	.	.	.	.	.	.	.
.	.	4BB/	.	1G	do-	.	.	.	.
.	.	4C/	.	.	.	.	.	.	.
=67	=67	=67	=67	=67	=67	=67	=67	=67	=67
*	*	*lig	*	*	*	*	*	*	*
2r	.	1D	.	.	.	0A	.	.	.
1D	.	.	.	2F/	-na	.	.	.	.
.	.	1AA	.	2E/	no-	.	.	2r	.
*	*	*	*	*custos:F	*	*	*	*	*
2C/	.	.	.	2C/	-b(is)	.	.	1A	.
!	!	!	!	!	!	!	!	!	!
*	*	*Xlig	*	*	*	*	*	*	*
!	!	!	!	!LO:LB:g=original	!	!	!	!	!
=68	=68	=68	=68	=68	=68	=68	=68	=68	=68
2BB/	.	1D	.	2F/	.	0r	.	.	.
2GG/	.	.	.	2G/	.	.	.	2G/	.
1BB	.	2r	.	1D	.	.	.	2F/	.
.	.	1G	do-	.	.	.	.	2D/	.
=69	=69	=69	=69	=69	=69	=69	=69	=69	=69
0AA	.	.	.	1r	.	2r	.	1A	.
.	.	2F\	-na	.	.	1d	do-	.	.
*	*	*	*	*	*ij	*	*	*	*
.	.	2E\	no-	1E	do-	.	.	1A	.
*	*	*custos:F	*	*	*	*custos:B	*	*	*
.	.	2C/	-bis	.	.	2c\	-na	.	.
!	!	!LO:LB:g=original	!	!	!	!LO:LB:g=original	!	!	!
=70	=70	=70	=70	=70	=70	=70	=70	=70	=70
2D/	.	2F\	.	2D/	-na	2B\	no-	1r	.
2C/	.	2G\	.	2E/	no-	2G/	-bis	.	.
2BB/	.	1D	.	2F/	-b(is)	1B	pa-	2r	.
2GG/	.	.	.	2G/	pa-	.	.	2d\	do-
=71	=71	=71	=71	=71	=71	=71	=71	=71	=71
1AA	.	1r	.	1E	.	0A	-cem	2d\	-na
.	.	.	.	.	.	.	.	2c\	no-
1F	.	1D	.	2D/	-cem	.	.	1d	-bis
*	*	*	*	*	*Xij	*	*	*	*
.	.	.	.	2A/	do-	.	.	.	.
=72	=72	=72	=72	=72	=72	=72	=72	=72	=72
2E\	.	2C/	.	2A/	-na	2r	.	1r	.
2D\	.	2BB/	.	2G/	.	2d\	do-	.	.
1E	.	1AA	.	2A/	no-	2d\	-na	2r	.
.	.	.	.	1c	-bis	2c\	no-	2A/	.
=73	=73	=73	=73	=73	=73	=73	=73	=73	=73
2D/	.	1r	.	.	.	1d	-bis	2A/	.
*custos:D	*	*	*	*	*	*	*	*	*
2GG/	.	.	.	2B\	pa-	.	.	2G/	.
!LO:LB:g=original	!	!	!	!	!	!	!	!	!
*lig	*	*	*	*	*	*	*	*	*
1D	.	2r	.	2.A\	-cem	2r	.	1A	.
.	.	2D/	.	.	.	1f	.	.	.
.	.	.	.	4G/	.	.	.	.	.
=74	=74	=74	=74	=74	=74	=74	=74	=74	=74
1AA	.	2D/	.	2A/	.	.	.	2r	.
.	.	2C/	.	2E/	.	2e\	pa-	2c\	do-
*	*	*	*	*	*	*	*	*custos:B	*
*Xlig	*	*	*	*	*	*	*	*	*
1r	.	2D/	.	2.F/	.	2d\	.	2B\	-na
!	!	!	!	!	!	!	!	!LO:LB:g=original	!
.	.	2.F\	.	.	.	2c\	.	2.A/	no-
.	.	.	.	4G/	.	.	.	.	.
=75	=75	=75	=75	=75	=75	=75	=75	=75	=75
1r	.	.	.	1A	.	1d	.	.	.
.	.	4E/	.	.	.	.	.	4G/	.
.	.	2D/	.	.	.	.	.	2F/	-bis
2r	.	2C/	.	1r	.	1A	-cem	2E/	.
2D/	.	2D/	.	.	.	.	.	2D/	pa-
=76	=76	=76	=76	=76	=76	=76	=76	=76	=76
2D/	.	1AA	.	2r	.	1r	.	1E	-cem
*	*	*	*	*custos:B	*	*	*	*	*
2C/	.	.	.	2c\	do-	.	.	.	.
!	!	!	!	!LO:LB:g=original	!	!	!	!	!
2D/	.	1D	.	2B/	-na	2d\	do-	1D	.
2.F\	.	.	.	2.A/	.	2d\	-na	.	.
=77	=77	=77	=77	=77	=77	=77	=77	=77	=77
.	.	0r	.	.	.	2c\	no-	1r	.
4E\	.	.	.	4G/	.	.	.	.	.
2D/	.	.	.	2F/	no-	2d\	-bis	.	.
2C/	.	.	.	2E/	.	1r	.	2r	.
*	*	*	*	*	*	*	*	*	*ij
2D/	.	.	.	2D/	.	.	.	2d\	do-
=78	=78	=78	=78	=78	=78	=78	=78	=78	=78
1AA	.	0r	.	2E/	.	2r	.	2d\	-na
.	.	.	.	2A/	.	2.f\	.	2c\	no-
1BB	.	.	.	2A/	-bis	.	.	1d	-bis
.	.	.	.	.	.	4e\	pa-	.	.
.	.	.	.	2G/	pa-	2d\	.	.	.
*	*	*	*	*	*	*	*	*	*Xij
=79	=79	=79	=79	=79	=79	=79	=79	=79	=79
*custos:E	*	*	*	*	*	*	*	*	*
2AA/	.	2r	.	1A	-ce(m)	2c\	.	2r	.
*	*	*custos:D	*	*	*	*	*	*	*
!LO:LB:g=original	!	!LO:TX:t=P:problem=odtąd dalszy ciąg na następnej stronie	!	!	!	!	!	!	!
2r	.	2D/	.	.	.	2d\	.	1f	do-
!LO:TX:b:t=2. Baſsi	!	!LO:LB:g=original	!	!	!	!	!	!	!
!LO:TX:t=P:problem=odtąd dalszy ciąg na następnej stronie	!	!	!	!	!	!	!	!	!
2r	.	2D/	.	2r	.	00A	-cem	.	.
2E\	.	2C/	.	2c\	.	.	.	2e\	.
=80	=80	=80	=80	=80	=80	=80	=80	=80	=80
1F	.	2D/	.	2B\	.	.	.	2d\	-na
.	.	2.F\	.	2.A\	.	.	.	2c\	no-
2D/	.	.	.	.	.	.	.	1d	.
.	.	4E/	.	4G/	.	.	.	.	.
2.A\	.	2D/	.	2F/	.	.	.	.	.
=81	=81	=81	=81	=81	=81	=81	=81	=81	=81
.	.	2C/	.	2E/	.	.	.	2A/	-bis
4G\	.	.	.	.	.	.	.	.	.
2F\	.	2D/	.	2.A/	.	.	.	1d	pa-
1E	.	1AA	.	.	.	2r	.	.	.
.	.	.	.	4G/	.	.	.	.	.
.	.	.	.	2E/	.	1A	do-	2c\	-cem
=82	=82	=82	=82	=82	=82	=82	=82	=82	=82
1D	.	2r	.	2F/	.	.	.	[0d;<l	.
.	.	2D/	do-	2D/	.	2F/	-na	.	.
2r	.	2BB/	-na	00D	.	2D/	no-	.	.
2G\	.	2GG/	.	.	.	2.d\	-bis	.	.
=83	=83	=83	=83	=83	=83	=83	=83	=83	=83
2G\	.	1D	no-	.	.	.	.	0d_	.
.	.	.	.	.	.	4c\	.	.	.
2F\	.	.	.	.	.	2A/	.	.	.
2G\	.	1GG	-bis	.	.	1B	pa-	.	.
1B	.	.	.	.	.	.	.	.	.
=84	=84	=84	=84	=84	=84	=84	=84	=84	=84
.	.	2GG/	do-	.	.	2G/	.	0d_	.
2A\	.	2FF/	-na	.	.	2A/	.	.	.
2G\	.	2GG/	.	1D	.	2B/	.	.	.
2F\	.	2.BB/	no-	.	.	2.d\	.	.	.
=85	=85	=85	=85	=85	=85	=85	=85	=85	=85
1G	.	.	.	2r	.	.	.	0d_	.
.	.	4AA/	-bis	.	.	4c\	.	.	.
.	.	2GG/	.	2D/	do-	2B\	.	.	.
[1D;l	.	2FF/	pa-	2F/	-na	2A/	.	.	.
.	.	2GG/	-ce(m)	2D/	no-	2G/	.	.	.
=86	=86	=86	=86	=86	=86	=86	=86	=86	=86
0D_	.	[0DD;l	.	2.F/	-bis	2A/	.	0d_	.
.	.	.	.	.	.	2D/	.	.	.
.	.	.	.	4G/	.	.	.	.	.
.	.	.	.	1.A	pa-	2F/	.	.	.
.	.	.	.	.	.	2D/	.	.	.
=87	=87	=87	=87	=87	=87	=87	=87	=87	=87
0D]	.	0DD]	.	.	.	2.F/	.	0d]	.
!	!	!	!	!LO:TX:t=P:problem=poprawka wysokości	!	!	!	!	!
.	.	.	.	2F/	.	.	.	.	.
.	.	.	.	.	.	4G/	-cem	.	.
.	.	.	.	1F;l	-cem	1A;<l	.	.	.
==	==	==	==	==	==	==	==	==	==
*-	*-	*-	*-	*-	*-	*-	*-	*-	*-
!!!system-decoration: [(s1,s2,s3,s4,s5)]
!!!RDF**kern: l = terminal long
!!!RDF**kern: > = above
!!!RDF**kern: < = below
!!!ENC: Mateusz Solarz
!!!END: 2022-02-22
!!!AIN: 1 alto 2 bass 1 soprn 1 tenor
!!!ENC: Natalia Wrzos
!!!END: 2022-02-27
